X:2430
T:Shiaull Ersooyl 
C:Traditional
O:Isle of Man
Z:Kiaull Vannin 430 
L:1/4
M:2/4 
L:1/8 
K:G 
d3 B|d3 B|d> d (3dcA|G4|d3 B|G3 B|d >d (3dcA|G4| 
(3GGG G >G|G >G G >G|G >G (3FEF|G2 G2|f3 d|B3 c|d >d (3dcA|G4|| 

